X: 1583
T: the Mountain Top
R: hornpipe
B: O'Neill's 1850 #1583
Z: Michael D. Long, 9/28/98
Z: Michael Hogan
M: 2/4
L: 1/16
K: Bb
(FE) | DFBc d2(cd) | edcB G2(FE) |13 DFBc dBAB | gfdB c2 :|2,4 DFBd cBAc | B2d2 B2 :|
|: (Bc) |: dBAB GBFB | DFBc dBAB | gBfB edcB |1,3 GccB ABce :|2,4 AFGA B2 :|
